!!!OTL: Graf und Nonne (Die Nonne)
!!!OTL-incipit:Ich stand auf hohem Berge
!!!ARE: Europa, Mitteleuropa, Deutschland (), Brandenburg, Uckermark
!!!YOR: 8, S. 292
!!    1838 aufgezeichnet
!!!SCT: Q0155V.
!!!TXL: @@DE
!!!YEM: Copyright 1995, estate of Helmut Schaffrath.
**kern	**text
*ICvox	*
*M2/4	*
*k[f#]	*
*G:	*
{8g	Ich
=1	=1
8.ddL	stand
16ggJ	auf
(16ddL	ho-
16cc)	.
(16b	-hem
16aJ)	.
=2	=2
4g	Ber-
8a}	-ge
{8a	und
=3	=3
8bL	sah
8bJ	ins
8ccL	tie-
8eeJ	-fe
=4	=4
4dd	Meer,
8r}	.
{8dd	ein
=5	=5
8ggL	Schiff-
8ggJ	-lein
(16ff#L	sah
16ee)	.
8ddJ	ich
=6	=6
(4ee	schwim-
4dd	.
=7	=7
4cc)	.
8b}	-men,
{8gg	wo-
=8	=8
8eeL	-rin
(16dd	drei
16ccJ)	.
8bL	Gra-
8aJ	-fen
=9	=9
4g	warn.
8r}	.
==	==
!!!AGN: Ballade, Standesunterschied, vergebliche Werbung, Liebe, Klage
!!!ONB: ESAC (Essen Associative Code) Database: BALLADE
!!!AMT: simple duple
!!!AIN: vox
!!!EED: Helmut Schaffrath
!!!EEV: 1.0
!!!source: Deutsche Volkslieder mit ihren Melodien. Herausgegeben vom Deutschen Volksliedarchiv. Achter Teil. Freiburg/Breisgau 1988.
!!!page: 292
!!!ENC: Anna Maria Matuszewska
!!!EEV: 2025/03/10
*-	*-
